X:1
T:Ride Alain Pennec 1
Z:Roger Ngaret (94-95)
R:ridee
C:Trad.
S:
A:Bretagne
M:2/4
L:1/16
K:G
Q:1/4=140
(3G2G2G2 "G"F2G2 | A2c2 B2A2 | (3G2G2G2 F2G2 | A2F2 G4 ::\
G2d2 c2d2 | e2c2 B4 | (3G2G2G2 F2G2 | A2c2 B2A2 | \
G2d2 c2d2 | e2c2 B4 | (3G2G2G2 F2G2 | A2F2 G4 :|
